X:1
T:Ruth (Hartshorn), CMD
T:Ruth (Hartshorn), CMD
T:W. Irving Hartshorn, before 1913
T:Public Domain Courtesy of the Cyber Hymnal™
C:W. Irving Hartshorn, before 1913
Z:Public Domain
Z:Courtesy of the Cyber Hymnal™
%%score ( 1 2 ) ( 3 4 )
L:1/8
Q:1/4=105
M:6/8
K:Ab
V:1 treble 
V:2 treble 
V:3 bass 
V:4 bass 
V:1
 [CE] | ([Ec][=D=B])[Ec] [F=d]2 [Ec] | [Ec]2 [DB] [CA]2 [EA] | [FA][EG][DF] E2 [Ec] | %4
 [EB]3- [EB]2 E | ([Ec][=D=B])[Ec] [F=d]2 [Ec] | [Ec]2 [DB] [CA]2 [DF] | E2 [CE] (EF)[DG] | %8
 [CA]3- [CA]2 [EA] | [FA]2 [FA] [=EG]2 [EG] | F2 [D=E] [DF]2 [DF] | [CE]2 [CE] [EA]2 [Ec] | %12
 [EB]3- [EB]2 [Ed] | [Ec][=D=B][Ec] [F=d]2 [Ec] | [Ec]2 [DB] [CA]2 [DF] | E2 [CE] (EF)[DG] | %16
 [CA]3- [CA]2 |] %17
V:2
 x | x6 | x6 | x3 E2 x | x5 E | x6 | x6 | (CB,) D2 x2 | x6 | x6 | F2 x4 | x6 | x6 | x6 | x6 | %15
 (CB,) D2 x2 | x5 |] %17
V:3
 [A,,A,] | [A,,A,]2 [A,,A,] [A,,A,]2 [A,,A,] | [E,A,]2 [E,G,] [F,A,]2 [C,A,] | %3
 [D,A,]2 [D,A,] [C,A,]2 [A,,A,] | [E,G,]3- [E,G,]2 [E,G,] | [A,,A,]2 [A,,A,] [A,,A,]2 [A,,A,] | %6
 [E,A,]2 [E,G,] [F,A,]2 [D,A,] | (A,G,)[E,A,] [E,B,]2 [E,B,] | [A,,A,]3- [A,,A,]2 [A,C] | %9
 [F,C]2 [F,C] [C,C]2 [C,B,] | [D,A,]2 [D,A,] [D,A,]2 [D,A,] | [A,,A,]2 [A,,A,] [A,,C]2 [A,,A,] | %12
 [E,G,]3- [E,G,]2 [E,G,] | [A,,A,]2 [A,,A,] [A,,A,]2 [A,,A,] | [E,A,]2 [E,G,] [F,A,]2 [D,A,] | %15
 (A,G,)[E,A,] [E,B,]2 [E,B,] | [A,,A,]3- [A,,A,]2 |] %17
V:4
 x | x6 | x6 | x6 | x6 | x6 | x6 | E,2 x4 | x6 | x6 | x6 | x6 | x6 | x6 | x6 | E,2 x4 | x5 |] %17

